public/assets/images/career/01.svg

<svg width="60" height="60" viewBox="0 0 60 60" fill="none" xmlns="http://www.w3.org/2000/svg">
<path d="M50.7275 40.091C49.2729 39.5455 47.6365 39.7274 46.182 40.6365L37.4547 45.9092C37.0911 45.6365 36.7275 45.3637 36.3638 45.2728L23.182 40.5455C22.182 40.1819 21.0911 40.1819 20.182 40.6365C20.182 40.6365 20.0911 40.6365 20.0911 40.7274L14.8184 43.9092V43.6365C14.8184 42.6365 14.0002 41.8183 13.0002 41.8183H8.63654C7.63654 41.8183 6.81836 42.6365 6.81836 43.6365V57.2728C6.81836 58.2728 7.63654 59.091 8.63654 59.091H12.9093C13.9093 59.091 14.7275 58.2728 14.7275 57.2728V56.8183C16.7275 55.7274 17.5456 54.7274 18.9093 54.9092L33.4547 58.091C34.6365 58.4546 35.9093 58.1819 37.0002 57.4546L51.8184 45.7274C53.8184 44.3637 53.6365 41.1819 50.7275 40.091ZM8.63654 57.2728V43.6365H12.9093V57.2728H8.63654ZM50.7275 44.2728C35.6365 55.7274 36.0002 56.9092 33.9093 56.2728L19.2729 53.091H19.182C17.0911 52.7274 15.6365 54.1819 14.7275 54.6365V45.9092L20.9093 42.1819C21.4547 42.0001 22.0002 42.0001 22.5456 42.1819L35.7275 46.9092C36.9093 47.3637 37.3638 48.8183 36.6365 49.8183C36.0911 50.5455 35.182 50.8183 34.2729 50.4546L26.4547 47.4546C26.0002 47.2728 25.4547 47.5455 25.2729 48.0001C25.0911 48.4546 25.3638 49.0001 25.8184 49.1819L33.6365 52.1819C35.2729 52.9092 37.0911 52.3637 38.0911 51.0001C38.8184 50.0001 39.0911 48.8183 38.5456 47.4546L47.182 42.2728C48.0911 41.7274 49.182 41.5455 50.182 41.9092C51.5456 42.3637 51.6365 43.6365 50.7275 44.2728Z" fill="#0F62FE"/>
<path d="M28.4546 30.9996C29.2728 31.5451 29.8182 32.4542 30 33.3633C29.1819 33.8178 28.7273 34.7269 28.7273 35.636C28.7273 36.9087 29.6364 37.9996 30.9091 38.2724L31.2728 41.1814C31.3637 41.636 31.7273 41.9996 32.1819 41.9996H39.2728C39.7273 41.9996 40.091 41.636 40.1819 41.1814L40.5455 38.1814C41.6364 37.8178 42.5455 36.8178 42.5455 35.636C42.5455 34.636 42 33.8178 41.2728 33.3633C41.3637 32.4542 41.9091 31.5451 42.8182 30.9087C46.1819 28.5451 48.2728 24.7269 48.2728 20.636C48.2728 13.5451 42.3637 7.81781 35.1819 8.18145C28.7273 8.45418 23.3637 13.9996 23.2728 20.4542C23 24.7269 25 28.636 28.4546 30.9996ZM32.9091 40.2724L32.7273 38.4542H38.6364L38.4546 40.2724H32.9091ZM39.6364 36.636H31.3637C30.9091 36.636 30.4546 36.2724 30.4546 35.7269C30.4546 35.2724 30.8182 34.8178 31.3637 34.8178H39.6364C40.091 34.8178 40.5455 35.1814 40.5455 35.7269C40.5455 36.1814 40.1819 36.636 39.6364 36.636ZM35 10.0905C41.091 9.81781 46.1819 14.7269 46.1819 20.7269C46.1819 24.2724 44.4546 27.5451 41.5455 29.5451C40.2728 30.3633 39.4546 31.636 39.2728 33.0905H31.8182C31.6364 31.7269 30.8182 30.4542 29.5455 29.5451C26.6364 27.5451 24.9091 24.1814 24.9091 20.636C25 15.0905 29.5455 10.3633 35 10.0905Z" fill="#0F62FE"/>
<path d="M35.2725 14.6362C38.727 14.4544 41.6361 17.2726 41.6361 20.7271C41.6361 21.2726 41.9997 21.6362 42.5452 21.6362C43.0906 21.6362 43.4543 21.2726 43.4543 20.7271C43.4543 16.2726 39.727 12.6362 35.1816 12.8181C34.6361 12.8181 34.2725 13.2726 34.2725 13.7271C34.2725 14.2726 34.727 14.6362 35.2725 14.6362Z" fill="#0F62FE"/>
<path d="M35.5458 6.27282C36.0913 6.27282 36.4549 5.90918 36.4549 5.36373V1.81827C36.4549 1.27282 36.0913 0.90918 35.5458 0.90918C35.0004 0.90918 34.6367 1.27282 34.6367 1.81827V5.36373C34.6367 5.90918 35.0004 6.27282 35.5458 6.27282Z" fill="#0F62FE"/>
<path d="M29.0906 6.72742C29.2724 7.09106 29.5452 7.27287 29.9088 7.27287C29.9997 7.27287 30.1815 7.27287 30.2724 7.18197C30.727 7.00015 30.9997 6.45469 30.727 6.00015L29.3633 2.72742C29.1815 2.27288 28.6361 2.00015 28.1815 2.27288C27.727 2.45469 27.4542 3.00015 27.727 3.45469L29.0906 6.72742Z" fill="#0F62FE"/>
<path d="M24.5457 10.1817C24.9094 10.5454 25.4548 10.5454 25.8184 10.1817C26.1821 9.81809 26.1821 9.27264 25.8184 8.909L23.273 6.36355C22.9094 5.99991 22.3639 5.99991 22.0003 6.36355C21.6366 6.72718 21.6366 7.27264 22.0003 7.63627L24.5457 10.1817Z" fill="#0F62FE"/>
<path d="M46.4546 10.4542L49.0001 7.90874C49.3637 7.5451 49.3637 6.99964 49.0001 6.63601C48.6365 6.27237 48.091 6.27237 47.7274 6.63601L45.1819 9.09055C44.8183 9.45419 44.8183 9.99964 45.1819 10.3633C45.4546 10.7269 46.091 10.7269 46.4546 10.4542Z" fill="#0F62FE"/>
<path d="M40.7273 7.36353C40.8183 7.45444 41.0001 7.45444 41.091 7.45444C41.4546 7.45444 41.8183 7.27262 41.9092 6.90898L43.2728 3.63626C43.4546 3.18171 43.2728 2.63626 42.8183 2.45444C42.3637 2.27262 41.8183 2.45444 41.6364 2.90898L40.2728 6.18171C40.091 6.63626 40.2728 7.18171 40.7273 7.36353Z" fill="#0F62FE"/>
</svg>

<svg xmlns="http://www.w3.org/2000/svg" width="60" height="60" fill="none" viewBox="0 0 60 60"><path fill="#0f62fe" d="M50.728 40.091c-1.455-.546-3.092-.364-4.546.545l-8.727 5.273c-.364-.273-.727-.545-1.091-.636l-13.182-4.728c-1-.363-2.09-.363-3 .091 0 0-.09 0-.09.091l-5.274 3.182v-.273c0-1-.818-1.818-1.818-1.818H8.637c-1 0-1.819.819-1.819 1.819v13.636c0 1 .819 1.818 1.819 1.818h4.272c1 0 1.818-.818 1.818-1.818v-.455c2-1.09 2.819-2.09 4.182-1.909l14.546 3.182c1.181.364 2.454.09 3.545-.636l14.818-11.728c2-1.363 1.819-4.545-1.09-5.636M8.636 57.273V43.636h4.272v13.637zm42.09-13C35.638 55.727 36 56.909 33.91 56.273L19.273 53.09h-.091c-2.09-.364-3.545 1.09-4.454 1.545V45.91l6.181-3.727a2.52 2.52 0 0 1 1.637 0l13.182 4.727c1.181.455 1.636 1.91.908 2.91-.545.726-1.454 1-2.363.636l-7.818-3c-.455-.182-1 .09-1.182.545s.09 1 .545 1.182l7.818 3A3.65 3.65 0 0 0 38.092 51c.727-1 1-2.182.455-3.545l8.636-5.182c.91-.546 2-.728 3-.364 1.364.455 1.454 1.727.545 2.364"/><path fill="#0f62fe" d="M28.455 31c.818.545 1.363 1.454 1.545 2.363-.818.455-1.273 1.364-1.273 2.273 0 1.273.91 2.364 2.182 2.636l.364 2.91c.09.454.454.818.909.818h7.09c.455 0 .819-.364.91-.819l.363-3c1.091-.363 2-1.363 2-2.545 0-1-.545-1.818-1.272-2.273.09-.909.636-1.818 1.545-2.454 3.364-2.364 5.455-6.182 5.455-10.273 0-7.09-5.91-12.818-13.091-12.455-6.455.273-11.818 5.819-11.91 12.273C23 24.727 25 28.636 28.456 31m4.454 9.272-.182-1.818h5.91l-.182 1.818zm6.727-3.636h-8.272a.91.91 0 0 1-.91-.91.91.91 0 0 1 .91-.908h8.272a.91.91 0 0 1 .91.909.91.91 0 0 1-.91.909M35 10.09c6.091-.272 11.182 4.637 11.182 10.637a10.66 10.66 0 0 1-4.637 8.818c-1.272.818-2.09 2.091-2.272 3.545h-7.455c-.182-1.363-1-2.636-2.273-3.545-2.909-2-4.636-5.364-4.636-8.909C25 15.091 29.546 10.363 35 10.091"/><path fill="#0f62fe" d="M35.273 14.636c3.454-.182 6.363 2.637 6.363 6.091 0 .546.364.91.91.91.545 0 .908-.364.908-.91 0-4.454-3.727-8.09-8.272-7.909a.91.91 0 0 0-.91.91c0 .545.455.908 1 .908m.274-8.363c.545 0 .909-.364.909-.91V1.819c0-.545-.364-.909-.91-.909-.545 0-.908.364-.908.91v3.545c0 .545.363.909.909.909m-6.456.453q.273.546.819.546c.09 0 .273 0 .363-.091C30.727 7 31 6.455 30.727 6l-1.364-3.273c-.181-.454-.727-.727-1.181-.454-.455.182-.728.727-.455 1.182zm-4.544 3.455a.88.88 0 0 0 1.272 0 .88.88 0 0 0 0-1.273l-2.545-2.545a.88.88 0 0 0-1.273 0 .88.88 0 0 0 0 1.272zm21.909.272L49 7.91a.88.88 0 0 0 0-1.273.88.88 0 0 0-1.273 0l-2.545 2.455a.88.88 0 0 0 0 1.272c.273.364.909.364 1.273.091m-5.728-3.091c.091.09.273.09.364.09.364 0 .727-.181.818-.545l1.364-3.273c.182-.454 0-1-.455-1.182-.454-.181-1 0-1.182.455l-1.363 3.273c-.182.454 0 1 .454 1.182"/></svg>
